fs/keyboard_tab_24_regular.svg

<svg viewBox="0 0 24 24" fill="none" xmlns="http://www.w3.org/2000/svg" height="1em" width="1em">
  <path d="M18.0303 11.4697L11.5303 4.96967C11.2374 4.67678 10.7626 4.67678 10.4697 4.96967C10.2034 5.23594 10.1792 5.6526 10.3971 5.94621L10.4697 6.03033L15.69 11.25H3.75C3.3703 11.25 3.05651 11.5322 3.00685 11.8982L3 12C3 12.3797 3.28215 12.6935 3.64823 12.7432L3.75 12.75H15.69L10.4697 17.9697C10.2034 18.2359 10.1792 18.6526 10.3971 18.9462L10.4697 19.0303C10.7359 19.2966 11.1526 19.3208 11.4462 19.1029L11.5303 19.0303L18.0303 12.5303C18.2966 12.2641 18.3208 11.8474 18.1029 11.5538L18.0303 11.4697L11.5303 4.96967L18.0303 11.4697ZM21 18.5V5.5C21 5.08579 20.6642 4.75 20.25 4.75C19.8358 4.75 19.5 5.08579 19.5 5.5V18.5C19.5 18.9142 19.8358 19.25 20.25 19.25C20.6642 19.25 21 18.9142 21 18.5Z" fill="#212121"/>
</svg>

<svg viewBox="0 0 24 24" fill="none" xmlns="http://www.w3.org/2000/svg" height="1em" width="1em">
  <path d="m18.03 11.47-6.5-6.5a.75.75 0 0 0-1.133.976l.073.084 5.22 5.22H3.75a.75.75 0 0 0-.743.648L3 12c0 .38.282.694.648.743l.102.007h11.94l-5.22 5.22a.75.75 0 0 0-.073.976l.073.084a.75.75 0 0 0 .976.073l.084-.073 6.5-6.5a.75.75 0 0 0 .073-.976l-.073-.084-6.5-6.5 6.5 6.5ZM21 18.5v-13a.75.75 0 0 0-1.5 0v13a.75.75 0 0 0 1.5 0Z" fill="#212121"/>
</svg>
